X:1
T:Tommy Peoples' Gan Aimn
M:C
L:1/8
C:Trad
S:Tommy Peoples
R:Reel
D:Altan: Island Angel
K:D
B3 c dBAF|B3 c dfed|B3 c d3 B|ABde fded:|
|:dfaf bfaf|dfaf ~g2 fg| afge d3 B|ABde fded:|

